static/assets/head_icons_png/man/bizi/1004528.svg

<svg xmlns="http://www.w3.org/2000/svg" width="26" height="44"><g transform="translate(4.05 6.05)"><radialGradient id="a" gradientUnits="userSpaceOnUse" gradientTransform="matrix(.00516 -.00323 .00511 .01569 14.7 19.25)" spreadMethod="pad" cx="0" cy="0" r="819.2" fx="0" fy="0"><stop offset=".337" stop-color="#f9c29f"/><stop offset="1" stop-color="#fedec1" stop-opacity="0"/></radialGradient><path d="M21.05 20.1q.5 2.7-2.1 5.65-.85.95-.9 4.4v.05l.05.05-.3-.35q-1.7-4.4-2.95-9.55Q13.7 15.2 12.4 7.1l.5 1.7-.45-1.85q3.8 8.3 6.3 9.4 1.1.45 1.35.8.5.65.95 2.95" fill="url(#a)"/><radialGradient id="b" gradientUnits="userSpaceOnUse" gradientTransform="matrix(.00395 .00037 -.00076 .00827 1.6 20.45)" spreadMethod="pad" cx="0" cy="0" r="819.2" fx="0" fy="0"><stop offset="0" stop-color="#f8c898"/><stop offset=".035" stop-color="#fdc7a7"/><stop offset="1" stop-color="#fdddc0"/></radialGradient><path d="M3.8 26.65l-.2.9q-4.65 1.95-3.75-1.2L1.5 19.8l2-10.05.7 6.95q.25 5.6-.4 9.95" fill="url(#b)"/><radialGradient id="c" gradientUnits="userSpaceOnUse" gradientTransform="matrix(.0001 .0066 -.04132 .00078 13.2 31.65)" spreadMethod="pad" cx="0" cy="0" r="819.2" fx="0" fy="0"><stop offset="0" stop-color="#f8c898"/><stop offset=".035" stop-color="#fdc7a7"/><stop offset="1" stop-color="#fdddc0"/></radialGradient><path d="M12.2 22.1l.4 2.45 1.45 2.65.55 1.5q.35 1.5-.3 2.2l-1.4 1.05q-.7.4-2.1 1.85-1.45 1.4-2.75 1.2-1.35-.2-2.7-1.45-1.4-1.3-2.45-1.3l-3.2.55q-2.2-.3-2.85-2.25-.65-2 .2-3.6.8-1.6 2.85-3.05-2.4 5.15-.3 6.1 2.05.95 2.95.6-.35-.45.05-1.85-.05 1 .9 1.95.95.95 2.25 1.5l2.55.6q1.25 0 2.6-.7t2.1-2.3q.7-1.65.15-2.45-.6-.85-.85-2.65l-.1-2.6m-7.8 5.8q.15-1.05.2.05l-.25.25.05-.3" fill="url(#c)"/><radialGradient id="d" gradientUnits="userSpaceOnUse" gradientTransform="matrix(.00778 -.00174 .00388 .01973 12.6 21.55)" spreadMethod="pad" cx="0" cy="0" r="819.2" fx="0" fy="0"><stop offset="0" stop-color="#f8c898"/><stop offset=".035" stop-color="#fdc7a7"/><stop offset="1" stop-color="#fdddc0"/></radialGradient><path d="M10.7 9.35l2.85 7.75q2.05 6.4 2.75 11.65l.1.7q-2.4.25-4.05-4.25-.6-1.6-.9-4.75-.35-3.15-.75-11.1" fill="url(#d)"/><radialGradient id="e" gradientUnits="userSpaceOnUse" gradientTransform="matrix(.0048 -.00392 .0065 .01494 13.9 26.75)" spreadMethod="pad" cx="0" cy="0" r="819.2" fx="0" fy="0"><stop offset=".337" stop-color="#f9c29f"/><stop offset="1" stop-color="#fedec1" stop-opacity="0"/></radialGradient><path d="M10.55 14.85q4.55 7.75 7.15 8.55 1.1.35 1.4.6.55.6 1.05 3.65.5 3-2.3 4.2-2.8 1.15-5.55.3 2.65-2.1 1.95-4.25-1.7-5-3.7-12.9l.65 1.65-.65-1.8m7.75 22.4v.1l-.15-.2.15.1" fill="url(#e)"/><radialGradient id="f" gradientUnits="userSpaceOnUse" gradientTransform="matrix(-.0121 .0066 .02673 .03111 -10.25 34.75)" spreadMethod="pad" cx="0" cy="0" r="819.2" fx="0" fy="0"><stop offset=".337" stop-color="#f9c29f"/><stop offset="1" stop-color="#fedec1" stop-opacity="0"/></radialGradient><path d="M4.25 15.45l-.05.15.05-.15m-4.95 9.5q.85 5.95 3.2 7.8-2.55.9-4.7 0-2.2-.9-1.8-3.45.35-2.6 2.1-3.5l1.2-.85m-2.6 12.8l-.15.2v-.1l.15-.1" fill="url(#f)"/><radialGradient id="g" gradientUnits="userSpaceOnUse" gradientTransform="matrix(.0121 .0066 -.02673 .03111 26.9 34.75)" spreadMethod="pad" cx="0" cy="0" r="819.2" fx="0" fy="0"><stop offset=".337" stop-color="#f9c29f"/><stop offset="1" stop-color="#fedec1" stop-opacity="0"/></radialGradient><path d="M12.4 15.45l.05.15-.05-.15m7.55 22.3l.15.2v-.1l-.15-.1m-2.6-12.8q-.85 5.95-3.2 7.8 2.55.9 4.7 0 2.2-.9 1.8-3.45-.35-2.6-2.1-3.5l-1.2-.85" fill="url(#g)"/><radialGradient id="h" gradientUnits="userSpaceOnUse" gradientTransform="matrix(.00732 .00026 -.00024 .00792 7.75 37)" spreadMethod="pad" cx="0" cy="0" r="819.2" fx="0" fy="0"><stop offset="0" stop-color="#f39b61"/><stop offset="1" stop-color="#f8be98"/></radialGradient><path d="M16.85 27.95q.3-2.1-2.95-2.8l-.1.1q-.2 0-.2-.55l-.65-2.8q-.9-3.05-1.45-9.05-.6-6 0-8T16.4.3Q13.75 7.55 14 11.4q.3 3.9 1.25 7l1.4 4.8.4.8L19 26.5q1 2.85-.3 4.55-1.3 1.65-2.95 1.95-1.65.25-2.4.8l-2.3 1.45-.4.2q-1.95 1.45-3.6.6L3.8 34.3l-2.3-.7q-4.3-1.35-2.85-2.3 1.45-.95 3.95.4l4.1 1.95 2.85.25q1.2-.4 2.85-1.65l.65-.6 1.05-1.4q2.45-.2 2.75-2.3m-3.45 2.6l-.05.05.05-.15v.1" fill="url(#h)"/><radialGradient id="i" gradientUnits="userSpaceOnUse" gradientTransform="matrix(.01274 0 0 .01299 4.6 28.1)" spreadMethod="pad" cx="0" cy="0" r="819.2" fx="0" fy="0"><stop offset="0" stop-color="#f39b61"/><stop offset="1" stop-color="#f9c8a8"/></radialGradient><path d="M13.8 25.25l.1-.1q3.25.7 2.95 2.8-.3 2.1-2.75 2.3l.1-.2.2-.6q.25-.7-.2-1.85.45.2-.4-2.35" fill="url(#i)"/><radialGradient id="j" gradientUnits="userSpaceOnUse" gradientTransform="matrix(.01314 -.00114 -.00485 .03894 9.35 14.45)" spreadMethod="pad" cx="0" cy="0" r="819.2" fx="0" fy="0"><stop offset=".337" stop-color="#f9c29f"/><stop offset="1" stop-color="#fedec1" stop-opacity="0"/></radialGradient><path d="M-2.8-5.9l-.05-.15.1.15h-.05M4.85 4.8l-.15 5.25-.65 6.75-.1.85v.5L3.7 19.6l.15-.6-.35 3.8Q1.15 34.9-.7 10.2q.3-4.25 1.85-7l.65-1.3Q0-2.65 4.85 4.8" fill="url(#j)"/><path d="M13.25 33.15q1.15-.65 2.05-.95l1.9-.15q1 .2-.6 1.05l-.9-.1-2.35.6-1.75.75-.85.6-.65.45-.85.35-.65.1-.45-.1-1.35-.45-.25-.1h.05l1 .2 2.2-.3 1.2-.7 2.25-1.25m-12.85 0q-1.45-.05-1.35-.5.1-.5.95-.5l1.45.2 2.05 1 2.85 1.7v.05l-.75-.3-2.15-.85Q1.8 33.2.4 33.15" fill="#823909"/><radialGradient id="k" gradientUnits="userSpaceOnUse" gradientTransform="matrix(.0028 .00027 -.0001 .01161 7.45 14.6)" spreadMethod="pad" cx="0" cy="0" r="819.2" fx="0" fy="0"><stop offset=".314" stop-color="#fff" stop-opacity=".431"/><stop offset="1" stop-color="#fff" stop-opacity="0"/></radialGradient><path d="M8.7 8.15q.45 2.8.45 6.7-.1 3.9-.6 6.6l-.35 1.4-.1.2q-.35 1.1-.8 1.05-.5-.05-.85-1.25l-.05-.2-.35-1.4q-.5-2.8-.45-6.7.05-3.95.6-6.7.5-2.7 1.25-2.6.75.05 1.25 2.9" fill="url(#k)"/><radialGradient id="l" gradientUnits="userSpaceOnUse" gradientTransform="matrix(.00217 .00012 -.00012 .00235 6.85 27.3)" spreadMethod="pad" cx="0" cy="0" r="819.2" fx="0" fy="0"><stop offset=".314" stop-color="#fff" stop-opacity=".431"/><stop offset="1" stop-color="#fff" stop-opacity="0"/></radialGradient><path d="M6.7 29.15q-.75-.05-1.2-.65-.5-.6-.45-1.35 0-.75.5-1.25.6-.55 1.35-.5.7 0 1.15.55.5.6.45 1.4-.05.8-.6 1.3-.55.55-1.2.5" fill="url(#l)"/></g></svg>

<?xml version="1.0" encoding="utf-8"?>
<svg version="1.1" id="Layer_1"
xmlns="http://www.w3.org/2000/svg"
xmlns:xlink="http://www.w3.org/1999/xlink"
xmlns:author="http://www.sothink.com"
width="26px" height="44px"
xml:space="preserve">
<g id="435" transform="matrix(1, 0, 0, 1, 4.05, 6.05)">
<radialGradient
id="RadialGradID_3859" gradientUnits="userSpaceOnUse" gradientTransform="matrix(0.00515747, -0.00323486, 0.00511169, 0.015686, 14.7, 19.25)" spreadMethod ="pad" cx="0" cy="0" r="819.2" fx="0" fy="0" >
<stop  offset="0.337255"  style="stop-color:#F9C29F;stop-opacity:1" />
<stop  offset="1"  style="stop-color:#FEDEC1;stop-opacity:0" />
</radialGradient>
<path style="fill:url(#RadialGradID_3859) " d="M21.05,20.1Q21.55 22.8 18.95 25.75Q18.1 26.7 18.05 30.15L18.05 30.2L18.1 30.25L17.8 29.9Q16.1 25.5 14.85 20.35Q13.7 15.2 12.4 7.1L12.9 8.8L12.45 6.95Q16.25 15.25 18.75 16.35Q19.85 16.8 20.1 17.15Q20.6 17.8 21.05 20.1" />
<radialGradient
id="RadialGradID_3860" gradientUnits="userSpaceOnUse" gradientTransform="matrix(0.00395203, 0.000366211, -0.000762939, 0.00827026, 1.6, 20.45)" spreadMethod ="pad" cx="0" cy="0" r="819.2" fx="0" fy="0" >
<stop  offset="0"  style="stop-color:#F8C898;stop-opacity:1" />
<stop  offset="0.0352941"  style="stop-color:#FDC7A7;stop-opacity:1" />
<stop  offset="1"  style="stop-color:#FDDDC0;stop-opacity:1" />
</radialGradient>
<path style="fill:url(#RadialGradID_3860) " d="M3.8,26.65L3.6 27.55Q-1.05 29.5 -0.15 26.35L1.5 19.8L3.5 9.75L4.2 16.7Q4.45 22.3 3.8 26.65" />
<radialGradient
id="RadialGradID_3861" gradientUnits="userSpaceOnUse" gradientTransform="matrix(0.000106812, 0.0065918, -0.0413208, 0.000778198, 13.2, 31.65)" spreadMethod ="pad" cx="0" cy="0" r="819.2" fx="0" fy="0" >
<stop  offset="0"  style="stop-color:#F8C898;stop-opacity:1" />
<stop  offset="0.0352941"  style="stop-color:#FDC7A7;stop-opacity:1" />
<stop  offset="1"  style="stop-color:#FDDDC0;stop-opacity:1" />
</radialGradient>
<path style="fill:url(#RadialGradID_3861) " d="M12.2,22.1L12.6 24.55L14.05 27.2L14.6 28.7Q14.95 30.2 14.3 30.9L12.9 31.95Q12.2 32.35 10.8 33.8Q9.35 35.2 8.05 35Q6.7 34.8 5.35 33.55Q3.95 32.25 2.9 32.25L-0.3 32.8Q-2.5 32.5 -3.15 30.55Q-3.8 28.55 -2.95 26.95Q-2.15 25.35 -0.1 23.9Q-2.5 29.05 -0.4 30Q1.65 30.95 2.55 30.6Q2.2 30.15 2.6 28.75Q2.55 29.75 3.5 30.7Q4.45 31.65 5.75 32.2L8.3 32.8Q9.55 32.8 10.9 32.1Q12.25 31.4 13 29.8Q13.7 28.15 13.15 27.35Q12.55 26.5 12.3 24.7L12.2 22.1M4.4,27.9Q4.55 26.85 4.6 27.95L4.35 28.2L4.4 27.9" />
<radialGradient
id="RadialGradID_3862" gradientUnits="userSpaceOnUse" gradientTransform="matrix(0.00778198, -0.0017395, 0.00387573, 0.0197296, 12.6, 21.55)" spreadMethod ="pad" cx="0" cy="0" r="819.2" fx="0" fy="0" >
<stop  offset="0"  style="stop-color:#F8C898;stop-opacity:1" />
<stop  offset="0.0352941"  style="stop-color:#FDC7A7;stop-opacity:1" />
<stop  offset="1"  style="stop-color:#FDDDC0;stop-opacity:1" />
</radialGradient>
<path style="fill:url(#RadialGradID_3862) " d="M10.7,9.35L13.55 17.1Q15.6 23.5 16.3 28.75L16.4 29.45Q14 29.7 12.35 25.2Q11.75 23.6 11.45 20.45Q11.1 17.3 10.7 9.35" />
<radialGradient
id="RadialGradID_3863" gradientUnits="userSpaceOnUse" gradientTransform="matrix(0.00480652, -0.00392151, 0.00650024, 0.0149384, 13.9, 26.75)" spreadMethod ="pad" cx="0" cy="0" r="819.2" fx="0" fy="0" >
<stop  offset="0.337255"  style="stop-color:#F9C29F;stop-opacity:1" />
<stop  offset="1"  style="stop-color:#FEDEC1;stop-opacity:0" />
</radialGradient>
<path style="fill:url(#RadialGradID_3863) " d="M10.55,14.85Q15.1 22.6 17.7 23.4Q18.8 23.75 19.1 24Q19.65 24.6 20.15 27.65Q20.65 30.65 17.85 31.85Q15.05 33 12.3 32.15Q14.95 30.05 14.25 27.9Q12.55 22.9 10.55 15L11.2 16.65L10.55 14.85M18.3,37.25L18.3 37.35L18.15 37.15L18.3 37.25" />
<radialGradient
id="RadialGradID_3864" gradientUnits="userSpaceOnUse" gradientTransform="matrix(-0.0121002, 0.00660706, 0.0267334, 0.0311127, -10.25, 34.75)" spreadMethod ="pad" cx="0" cy="0" r="819.2" fx="0" fy="0" >
<stop  offset="0.337255"  style="stop-color:#F9C29F;stop-opacity:1" />
<stop  offset="1"  style="stop-color:#FEDEC1;stop-opacity:0" />
</radialGradient>
<path style="fill:url(#RadialGradID_3864) " d="M4.25,15.45L4.2 15.6L4.25 15.45M-0.7,24.95Q0.15 30.9 2.5 32.75Q-0.05 33.65 -2.2 32.75Q-4.4 31.85 -4 29.3Q-3.65 26.7 -1.9 25.8L-0.7 24.95M-3.3,37.75L-3.45 37.95L-3.45 37.85L-3.3 37.75" />
<radialGradient
id="RadialGradID_3865" gradientUnits="userSpaceOnUse" gradientTransform="matrix(0.0121002, 0.00660706, -0.0267334, 0.0311127, 26.9, 34.75)" spreadMethod ="pad" cx="0" cy="0" r="819.2" fx="0" fy="0" >
<stop  offset="0.337255"  style="stop-color:#F9C29F;stop-opacity:1" />
<stop  offset="1"  style="stop-color:#FEDEC1;stop-opacity:0" />
</radialGradient>
<path style="fill:url(#RadialGradID_3865) " d="M12.4,15.45L12.45 15.6L12.4 15.45M19.95,37.75L20.1 37.95L20.1 37.85L19.95 37.75M17.35,24.95Q16.5 30.9 14.15 32.75Q16.7 33.65 18.85 32.75Q21.05 31.85 20.65 29.3Q20.3 26.7 18.55 25.8L17.35 24.95" />
<radialGradient
id="RadialGradID_3866" gradientUnits="userSpaceOnUse" gradientTransform="matrix(0.00732422, 0.000259399, -0.000244141, 0.00791931, 7.75, 37)" spreadMethod ="pad" cx="0" cy="0" r="819.2" fx="0" fy="0" >
<stop  offset="0"  style="stop-color:#F39B61;stop-opacity:1" />
<stop  offset="1"  style="stop-color:#F8BE98;stop-opacity:1" />
</radialGradient>
<path style="fill:url(#RadialGradID_3866) " d="M16.85,27.95Q17.15 25.85 13.9 25.15L13.8 25.25Q13.6 25.25 13.6 24.7L12.95 21.9Q12.05 18.85 11.5 12.85Q10.9 6.85 11.5 4.85Q12.1 2.85 16.4 0.3Q13.75 7.55 14 11.4Q14.3 15.3 15.25 18.4L16.65 23.2L17.05 24L19 26.5Q20 29.35 18.7 31.05Q17.4 32.7 15.75 33Q14.1 33.25 13.35 33.8L11.05 35.25L10.65 35.45Q8.7 36.9 7.05 36.05L3.8 34.3L1.5 33.6Q-2.8 32.25 -1.35 31.3Q0.1 30.35 2.6 31.7L6.7 33.65L9.55 33.9Q10.75 33.5 12.4 32.25L13.05 31.65L14.1 30.25Q16.55 30.05 16.85 27.95M13.4,30.55L13.35 30.6L13.4 30.45L13.4 30.55" />
<radialGradient
id="RadialGradID_3867" gradientUnits="userSpaceOnUse" gradientTransform="matrix(0.0127411, 0, 0, 0.0129852, 4.6, 28.1)" spreadMethod ="pad" cx="0" cy="0" r="819.2" fx="0" fy="0" >
<stop  offset="0"  style="stop-color:#F39B61;stop-opacity:1" />
<stop  offset="1"  style="stop-color:#F9C8A8;stop-opacity:1" />
</radialGradient>
<path style="fill:url(#RadialGradID_3867) " d="M13.8,25.25L13.9 25.15Q17.15 25.85 16.85 27.95Q16.55 30.05 14.1 30.25L14.2 30.05L14.4 29.45Q14.65 28.75 14.2 27.6Q14.65 27.8 13.8 25.25" />
<radialGradient
id="RadialGradID_3868" gradientUnits="userSpaceOnUse" gradientTransform="matrix(0.0131378, -0.00114441, -0.00485229, 0.0389404, 9.35, 14.45)" spreadMethod ="pad" cx="0" cy="0" r="819.2" fx="0" fy="0" >
<stop  offset="0.337255"  style="stop-color:#F9C29F;stop-opacity:1" />
<stop  offset="1"  style="stop-color:#FEDEC1;stop-opacity:0" />
</radialGradient>
<path style="fill:url(#RadialGradID_3868) " d="M-2.8,-5.9L-2.85 -6.05L-2.75 -5.9L-2.8 -5.9M4.85,4.8L4.7 10.05L4.05 16.8L3.95 17.65L3.95 18.15L3.7 19.6L3.85 19L3.5 22.8Q1.15 34.9 -0.7 10.2Q-0.4 5.95 1.15 3.2L1.8 1.9Q0 -2.65 4.85 4.8" />
<path style="fill:#823909;fill-opacity:1" d="M13.25,33.15Q14.4 32.5 15.3 32.2L17.2 32.05Q18.2 32.25 16.6 33.1L15.7 33L13.35 33.6L11.6 34.35L10.75 34.95L10.1 35.4L9.25 35.75L8.6 35.85L8.15 35.75L6.8 35.3L6.55 35.2L6.6 35.2L7.6 35.4L9.8 35.1L11 34.4L13.25 33.15M0.4,33.15Q-1.05 33.1 -0.95 32.65Q-0.85 32.15 0 32.15L1.45 32.35L3.5 33.35L6.35 35.05L6.35 35.1L5.6 34.8L3.45 33.95Q1.8 33.2 0.4 33.15" />
<radialGradient
id="RadialGradID_3869" gradientUnits="userSpaceOnUse" gradientTransform="matrix(0.00279236, 0.000274658, -0.000106812, 0.0116119, 7.45, 14.6)" spreadMethod ="pad" cx="0" cy="0" r="819.2" fx="0" fy="0" >
<stop  offset="0.313725"  style="stop-color:#FFFFFF;stop-opacity:0.431373" />
<stop  offset="1"  style="stop-color:#FFFFFF;stop-opacity:0" />
</radialGradient>
<path style="fill:url(#RadialGradID_3869) " d="M8.7,8.15Q9.15 10.95 9.15 14.85Q9.05 18.75 8.55 21.45L8.2 22.85L8.1 23.05Q7.75 24.15 7.3 24.1Q6.8 24.05 6.45 22.85L6.4 22.65L6.05 21.25Q5.55 18.45 5.6 14.55Q5.65 10.6 6.2 7.85Q6.7 5.15 7.45 5.25Q8.2 5.3 8.7 8.15" />
<radialGradient
id="RadialGradID_3870" gradientUnits="userSpaceOnUse" gradientTransform="matrix(0.00216675, 0.00012207, -0.00012207, 0.00234985, 6.85, 27.3)" spreadMethod ="pad" cx="0" cy="0" r="819.2" fx="0" fy="0" >
<stop  offset="0.313725"  style="stop-color:#FFFFFF;stop-opacity:0.431373" />
<stop  offset="1"  style="stop-color:#FFFFFF;stop-opacity:0" />
</radialGradient>
<path style="fill:url(#RadialGradID_3870) " d="M6.7,29.15Q5.95 29.1 5.5 28.5Q5 27.9 5.05 27.15Q5.05 26.4 5.55 25.9Q6.15 25.35 6.9 25.4Q7.6 25.4 8.05 25.95Q8.55 26.55 8.5 27.35Q8.45 28.15 7.9 28.65Q7.35 29.2 6.7 29.15" />
</g>
</svg>
